!!!!SEGMENT: pl-wnifc--6432-n--012_nowakowski-jozef--fantaisie-valse-no-12.krn
!!!cenid: 18xx:3935
!!!COM: Nowakowski, Józef
!!!COM-rismID: pe175316
!!!CDT: 1880/09/16-1865/08/27
!!!CNT: Polish
!!!OTL: Fantaisie Valse No. 12
!!!PDT: 1825
!!!AGN:
!!!SMS-siglum: PL-Wnifc
!!!SMS-shelfmark: 6432/n
!!!SMS-shelfwork: 012 W
!!!SMS-variant:
!!!SMS-altvar:
!!!NIFC-rismSourceID: 1001134716
!!!NIFC-rismChildID: 1001134767
!!!NIFC-islandoraID: nifc:212700
!!!URL-pdf-islandora: https://repozytorium.nifc.pl/islandora/object/nifc%3A212700/datastream/PDF/view
!!!URL-scan: https://polish.musicsources.pl/pl/lokalizacje/galeria/druki-muzyczne/16851 @EN{Scan on Polish Music Sources Website} @PL{Skany w portalu Dziedzictwo Muzyki Polskiej w otwartym dostępie}
!!!ONB-nifc: UWAGA: w źródle 5 Mazurów (001-005), 4 Anglezy (006-009), 2 Walce (010-011) i Fantaisie Valse (012).
!!!AIN: 2 piano
!!!key: B
**kern	**kern	**dynam
*part2	*part1	*part1
*staff2	*staff1	*
*I"Piano	*I"Piano	*
*I'P-no	*I'P-no	*
*Ipiano	*Ipiano	*
*ICklav	*ICklav	*
*clefF4	*clefG2	*
*k[b-e-]	*k[b-e-]	*
*B:	*B:	*
*M3/4	*M3/4	*
4r	(8f/L	.
.	(>8b-/J)	.
=1	=1	=1
*^	*	*
4r	[2.BB-\	8dd/L	.
.	.	8f/	.
4G/	.	8cc#X/	.
.	.	8e-X/	<
4A/	.	8ccn/	.
.	.	8e-X/J	.
=2	=2	=2	=2
4B-/	2.BB-\]	8b-/L	.
.	.	8d/	.
4c/	.	8a/	.
.	.	8e-/	.
4d/	.	8b-/	.
.	.	8f/J	[[
=3	=3	=3	=3
4r	2F\	8g#X/L 8bn	.
.	.	8d/	.
4A/	.	8f/ 8cc	.
.	.	8e-/	>
4c/	4ryy	8a/ 8ee-	.
.	.	[8f/J	.
=4	=4	=4	=4
*	*	*^	*
4c/	2BB-\	((4a/) 4ee-	2f\]	.
4B-/	.	4b-/)) 4dd	.	]
4r	4r	(8f/L	4ryy	.
.	.	8b-/J)	.	<
*	*	*v	*v	*
=5	=5	=5	=5
4r	[2.BB-\	(>8dd/L	.
.	.	8f/	.
4G/	.	8cc#X/	.
.	.	8en/	.
4A/	.	8ccn/	.
.	.	8e-X/J	.
=6	=6	=6	=6
4B-/	2.BB-\]	8b-/L	.
.	.	8d/	.
4c/	.	8a/	.
.	.	8e-/	.
4d/	.	8b-/	.
.	.	8f/J)	pp [[
=7	=7	=7	=7
*	*	*^	*
4r	2C\	(4a/	8f\L	.
.	.	.	8c\	.
4Bn/	.	4g/	8f\	.
.	.	.	8d\	.
4B-X/	4ryy	(4cc/)	8en\ 8g	.
.	.	.	[8c\J	.
*	*	*v	*v	*
=8	=8	=8	=8
4A/	4F\	4c/]) 4f 4cc	.
4FF/	2ryy	4r	.
4r	.	(8f/L	.
.	.	8b-/J)	.
=9	=9	=9	=9
4r	[2.BB-\	(>8dd/L	.
.	.	8f/	.
4G/	.	8cc#X/	.
.	.	8e-X/	.
4A/	.	8ccn/	.
.	.	8e-X/J	.
=10	=10	=10	=10
!	!	!	!LO:HP:t=cres.
4B-/	2.BB-\]	8b-/L)	<
.	.	8d/	.
4c/	.	8a/	.
.	.	8e-/	.
4d/	.	8b-/	.
.	.	8f/J	.
=11	=11	=11	=11
4r	2.F\	8g#X/L 8bn	.
.	.	8d/	.
4A/	.	8f/ 8cc	.
.	.	8e-/	.
[4c/	.	8a/ 8ee-	.
.	.	[8f/J	.
=12	=12	=12	=12
*	*	*^	*
(4c/]	2BB-\	((4a/ 4ee-	2f\]	.
4B-/)	.	4b-/)) 4dd	.	.
4r	4ryy	(8f/L	4ryy	.
.	.	8b-/J)	.	.
!LO:LB:g=original	!LO:LB:g=original	!LO:LB:g=original	!	!
*	*	*v	*v	*
=13	=13	=13	=13
4r	2.BB-\	8dd/L	.
.	.	8f/	.
4G/	.	8cc#X/	.
.	.	8en/	.
4A/	.	8ccn/	.
.	.	8e-X/J	.
*v	*v	*	*
=14	=14	=14
4B-/	8b-/L	.
.	8d/	.
4C\ 4c	8a/	.
.	8e-/	.
4D\ 4d	(8f/ 8b-	.
.	8a/J)	.
=15	=15	=15
*^	*	*
4E-/	4ryy	(8c/L 8g	.
.	.	8cc/J)	.
4A/	2F\	(4f/	.
(8B-/L	.	8en/L 8g	.
8c/J)	.	8e-X/J) 8a	.
*v	*v	*	*
=16	=16	=16
4B-\	4d/ 4b-	.
4BB-/	4r	.
!	!LO:TX:b:t=fine.	!
==;17	==;17	==;17
4r	8.b-/L	.
.	(>16b-/Jk	p
=18	=18	=18
*^	*	*
(4B-/	[2.BB-\	12b-/L	.
.	.	12d/	.
.	.	12f/J	.
4An/	.	12cc/L	.
.	.	12e-/	.
.	.	12g-X/J	.
4A-X/	.	12dd/L	.
.	.	12f/	.
.	.	12b-/J	.
=19	=19	=19	=19
*	*	*Xtuplet	*
!	!	!LO:TX:b:t=cres.__ 	! 
4G/	2.BB-\_	12ee-/L	.
.	.	12e-/	.
.	.	12b-/J	.
4D/	.	12ff/L	.
.	.	12f/	.
.	.	12b-/J	.
4E-/	.	12gg/L	.
.	.	12g/	.
.	.	12b-/J	.
=20	=20	=20	=20
4D/)	2.BB-\]	(>12ff/L)	.
.	.	12f/	.
!	!	!LO:TX:b:t=___cen___	!
.	.	12b-/J	.
4C#X/	.	12een/L	.
.	.	12e-/	.
.	.	12b-/J	.
4D/	.	12ff/L	.
.	.	12f/	.
.	.	12b-/J	.
=21	=21	=21	=21
4B-/	2.BB-\	12dd/L	.
.	.	12d/	.
!	!	!LO:TX:b:t=___do	!
.	.	12f/J	.
4A/	.	12cc#X/L	.
.	.	12c/	.
.	.	12f/J	.
4B-/	.	12dd/L	.
.	.	12d/	.
.	.	12f/J	.
*v	*v	*	*
=22	=22	=22
!	!	!LO:DY:b:t=for
4Bn\	12dd/L	f
.	12f/	.
.	12g/J	.
4c\	12ee-/L	.
.	12e-/	.
.	12g/J	.
4A\	12ee-/L	.
.	12g-X/	.
.	12cc/J	.
=23	=23	=23
4B-\	12dd/L	.
.	12f/	.
.	12b-/J	.
4G\	12dd/L	.
.	12e-/	.
.	12b-/J	.
4A\	12cc/L	.
.	12e-/	.
.	12g-X/J	.
=24	=24	=24
*	*^	*
4F#X\	12cc/L	4d\	.
.	12d/	.	.
.	12a/J	.	.
4G\	12b-/L	2ryy	.
.	12d/	.	.
.	12g/J	.	.
4E-\	12b-/L	.	.
.	12c#X/	.	.
.	12g/J)	.	.
!LO:LB:g=original	!LO:LB:g=original	!LO:LB:g=original	!
*	*v	*v	*
=25	=25	=25
4D\	4d/ 4f#X 4a	.
4DD/	4r	.
8.D\L 8.d	4r	.
16D\Jk 16d	.	.
=26	=26	=26
4D\ 4d	2.r	.
4D\ 4d	.	.
4D\ 4d	.	.
=27	=27	=27
*^	*	*
*	*	*tuplet	*
4r	[2.D\	(>12f#X/L	pp
.	.	12A/	.
.	.	12d/J	.
*	*	*Xtuplet	*
4c#X/	.	12g/L	.
.	.	12A/	.
.	.	12en/J	.
4cn/	.	12a/L	.
.	.	12e-X/	.
.	.	12f#/J	.
=28	=28	=28	=28
4B-/	2D\]	12b-/L	.
.	.	12d/	.
.	.	12g/J	.
4A/	.	12cc/L	.
.	.	12d/	.
.	.	12f#X/J	.
4G/	4ryy	12b-/L	.
.	.	12c#X/	.
.	.	12en/J)	.
=29	=29	=29	=29
(2F#X/	4D\	(>12a/L	.
.	.	12A/	.
!	!	!	!LO:HP:t=cres.
.	.	12d/J	<
.	4C\	12a/L	.
.	.	12A/	.
.	.	12e-X/J	.
4G/)	4BB-\	12g/L	.
.	.	12c#X/	.
.	.	12d/J	.
*v	*v	*	*
=30	=30	=30
!	!	!LO:HP:t=cres.
((2AA\ 2A	12f/L	<
.	12Bn/	.
.	12c/J	.
.	12e-/L	.
.	12F#X/	.
.	12c/J	.
4GG\)) 4G	12d/L	.
.	12A/	.
.	12B-X/J	.
=31	=31	=31
4FF\ 4F	12d/L	.
.	12A/	.
.	12B-/J	.
4EE-\ 4En	12c#X/L	.
.	12A/	.
.	12B-/J	.
4EE-\ 4E-X	12c#/L	.
.	12G/	.
.	12A/J)	.
=32	=32	=32
!	!	!LO:DY:b:t=for
4DD/ 4D	4F#X/ 4A 4d	f
4DD/ 4D	4F#/ 4A 4d	.
4r	8.B-/L 8.c#X 8.g	.
.	16A/Jk 16d 16f#X	.
=33	=33	=33
4DD/ 4D	4A/ 4d 4f#X	.
4DD/ 4D	4A/ 4d 4f#	.
4r	8.c/L 8.en 8.b-	.
.	16d/Jk 16f# 16a	.
=34	=34	=34
4D\	(4d/ 4f#X 4a	.
4A\	(4f#\ 4ee-	.
(4B-\	4g\) 4dd	.
=35	=35	=35
*	*^	*
4F#X\	4a/ 4cc	2d\)	.
4G\	4g/ 4b-	.	.
4E-X\)	(4g/ 4a	4c#X\	.
*	*v	*v	*
=36	=36	=36
4D\	(4d/) 4f#X 4a	pp
4DD/	4r	.
(8G\L	8.B-/L 8.c 8.en	.
8F#X\J)	.	.
.	16A/Jk) 16d	.
=37	=37	=37
4F#X\	4A/ 4d	.
4DD/	4r	.
(8.B-\L	(8.c/L 8.en 8.g	.
16A\Jk)	16d/Jk) 16f#X	.
!LO:LB:g=original	!LO:LB:g=original	!
=38	=38	=38
4A\	(4d/ 4f#X	.
4e-\	4f#/ 4cc	.
4d\	4g/) 4b-	.
=39	=39	=39
*	*^	*
4c\	(4ee-/	4f#X\	.
4B-\	4ff/	2g\	.
4A\	4cc#X/)	.	.
*	*v	*v	*
=40	=40	=40
!	!	!LO:DY:b:t=for
4D\	4f#X/ 4dd	f
8DD/L 8D	8d/L 8dd	.
8DD/J 8D	8d/J 8dd	.
4DD/ 4D	4d/ 4dd	.
=41	=41	=41
!	!LO:TX:b:t=Valse Da Capo.	!
4DD/ 4D	4d/ 4dd	.
4DD/ 4D	4d/ 4dd	.
4DD/ 4D	4d/ 4dd	.
=42	=42	=42
4DD/ 4D	4d/ 4dd	.
8BB-/L 8F	8dd/L	pp
8BB-/J 8F	8dd/J	.
4BB-/ 4F	4dd/	.
=43	=43	=43
4BB-/ 4F	4dd/	.
4BB-/ 4F	4dd/	.
4BB-/ 4F	4dd/	.
=44||	=44||	=44||
*k[b-e-a-]	*k[b-e-a-]	*
!	!LO:TX:a:t=Trio.	!
4r	8B-/L	.
.	(8e-/J	.
=45	=45	=45
(8E-\L	8g/L	p <
8F\	8a-/	.
8F#X\	8an/	.
8G\	8b-/	.
8A-\	8cc/	.
8F#\J	8dd/J	[[
=46	=46	=46
8G\L	8ee-\L	>
8F\	8dd\	.
8A-\	8ff\	.
8G\	8ee-\	.
8B-\	8dd\	.
8A-\J	8cc\J	]]
=47	=47	=47
8G\L	8b-/L	.
8F#X\	8an/	.
8A-\	8cc/	.
8G\	8b-/	.
8Fn\	8a-X/	.
8E-\J)	8g/J)	.
=48	=48	=48
4BB-/	(((4en/ 4g 4b-	.
(8qAn/	.	.
8B-\)	8f/))) 8a-	.
8r	8r	.
*clefG2	*	*
(8d/L	(8b-\L	.
8e-/J	8cc\J)	.
=49	=49	=49
8f/L	(8dd\L	.
8g/	8ee-\	.
8a-/	8ff\	.
8b-/	8gg\	.
8cc/	8aa-\	<
8b-/J	8gg\J	.
=50	=50	=50
8dd/L	8bb-\L	.
8cc/	8aa-\	[
8b-/	8gg\	.
8a-/	8ff\	.
8g/	8ee-\	.
8f/J	8dd\J	.
=51	=51	=51
*^	*	*
8e-/L	2ryy	8cc\L	>
8d/	.	8b-\	.
8c#X/	.	8an\	.
8d/	.	8b-\	.
8e-/	4B-\	8a\ 8cc	.
8f/J	.	8a-X\J) 8dd	]]
=52	=52	=52	=52
4d/)	4B-\	(4a-\ 4ff	.
4e-/	4E-\	4g\) 4ee-	.
=:|:53	=:|:53	=:|:53	=:|:53
!	!	!	!LO:DY:b:t=for
4r	4ryy	8.g/L 8.gg	f
.	.	16g/Jk 16gg	.
!LO:LB:g=original	!LO:LB:g=original	!LO:LB:g=original	!
*v	*v	*	*
*clefF4	*	*
=54	=54	=54
*	*tuplet	*
4GG/ 4G	(>12gg/L	.
.	12g/	.
.	12bn/J	.
*	*Xtuplet	*
4AA-\ 4An	12ff#X/L	.
.	12f/	.
.	12cc/J	.
4BB-\ 4Bn	12ffn/L	.
.	12f/	.
.	12dd/J	.
=55	=55	=55
4C\ 4c	12ee-/L	.
.	12f#X/	.
.	12g/J	.
4D\ 4d	12bn/L	.
.	12f#/	.
.	12g/J	.
4E-\ 4e-	12cc/L	.
.	12f#/	.
.	12g/J	.
=56	=56	=56
*^	*	*
4f/	4F\	12dd/L	.
.	.	12g/	.
.	.	12a-/J	.
(4e-/	2G\	12cc/L	.
.	.	12f#X/	.
.	.	12g/J	.
4d/)	.	12bn/L	.
.	.	12fn/	.
.	.	12g/J)	.
*v	*v	*	*
=57	=57	=57
*Xtuplet	*	*
12c'\L	4e-/ 4ee-	.
12E-'\	.	.
12G'\J	.	.
12C'/L	4r	.
12E-'/	.	.
12GG'/J	.	.
12C'/L	4r	.
12EE-'/	.	.
12GG'/J	.	.
=58	=58	=58
4FF/	(>12ff/L	.
.	12f/	.
.	12an/J	.
4GG/	12een/L	.
.	12e-/	.
.	12b-/J	.
4AAn/	12ee-X/L	.
.	12f/	.
.	12cc/J	.
=59	=59	=59
4BB-/	12dd/L	.
.	12d/	.
.	12f/J	.
4C/	12an/L	.
.	12e-/	.
.	12f/J	.
4D\	12b-/L	.
.	12B-/	.
.	12f/J	.
=60	=60	=60
8.E-\L	12g/L	.
.	12d/	.
.	12c#X/J	.
16En\Jk	.	.
4F\	12f/L	.
.	12B-/	.
.	12d/J	.
4FF/	12an/L	.
.	12cn/	.
.	12e-/J)	.
=61	=61	=61
*^	*	*
(4An/	2BB-\	((4e-/ 4cc	.
8B-/)	.	8d/)) 8b-	.
!	!	!LO:TX:b:t=Da Capo.	!
8ryy	.	8r	.
*v	*v	*	*
==	==	==
*-	*-	*-
!!!RDF**kern: > = above
!!!RDF**kern: < = below
!!!system-decoration: [(s1,s2)]
!!!ENC: Berenika Jozajtis
!!!END: 2022-07-27
!!!ENC: Julita Ruszuk
!!!END: 2022-08-24
!!!YEC: Copyright 2022 Narodowy Instytut Fryderyka Chopina (https://polishscores.org)
!!!YEM: License CC-BY-4.0 (https://creativecommons.org/licenses/by/4.0)
